apps/scalable/application-vidiot.svg

<svg xmlns="http://www.w3.org/2000/svg" style="isolation:isolate" width="256" height="256"><defs><filter id="a" width="270.648" height="254.338" x="-7.32" y="2.95" filterUnits="userSpaceOnUse"><feGaussianBlur xmlns="http://www.w3.org/2000/svg" in="SourceGraphic" stdDeviation="4.294"/><feOffset xmlns="http://www.w3.org/2000/svg" dy="4" result="pf_100_offsetBlur"/><feFlood xmlns="http://www.w3.org/2000/svg" flood-opacity=".4"/><feComposite xmlns="http://www.w3.org/2000/svg" in2="pf_100_offsetBlur" operator="in" result="pf_100_dropShadow"/><feBlend xmlns="http://www.w3.org/2000/svg" in="SourceGraphic" in2="pf_100_dropShadow"/></filter></defs><path fill="#666" d="M165.685 11.947c74.055 0 84.639 10.557 84.639 84.544v59.251c0 73.986-10.584 84.543-84.639 84.543h-75.37c-74.055 0-84.639-10.557-84.639-84.543V96.491c0-73.987 10.584-84.544 84.639-84.544h75.37z" filter="url(#a)"/><path fill="#333" d="M165.685 11.947c64.324 0 80.762 7.965 83.971 58.543-5.534-.093-249.79-.86-243.244-1.03C9.78 19.804 26.43 11.947 90.315 11.947h75.37zM249.54 183.467c-3.477 49.035-20.269 56.818-83.855 56.818h-75.37c-63.154 0-80.148-7.678-83.782-55.825-5.315.597 238.902-.149 243.007-.993z"/><g opacity=".4"><linearGradient id="b" x1=".517" x2=".517" y2="1"><stop offset="0%" stop-color="#fff"/><stop offset="12.5%" stop-opacity=".098" stop-color="#fff"/><stop offset="92.5%" stop-opacity=".098"/><stop offset="100%" stop-opacity=".498"/></linearGradient><path fill="none" stroke="url(#b)" stroke-linecap="round" stroke-linejoin="round" stroke-width="4.077" d="M165.685 11.947c74.055 0 84.639 10.557 84.639 84.544v59.251c0 73.986-10.584 84.543-84.639 84.543h-75.37c-74.055 0-84.639-10.557-84.639-84.543V96.491c0-73.987 10.584-84.544 84.639-84.544h75.37z" vector-effect="non-scaling-stroke"/></g><g fill="#F9F9F9" fill-rule="evenodd"><path d="M43.025 33.641l6.76 10.993-6.76 10.992H29.498l6.761-10.992-6.761-10.993M69.819 33.641l6.76 10.993-6.76 10.992H56.293l6.76-10.992-6.76-10.993M95.717 33.641l6.761 10.993-6.761 10.992H82.191l6.761-10.992-6.761-10.993M121.649 33.641l6.76 10.993-6.76 10.992h-13.526l6.76-10.992-6.76-10.993M43.025 221.559l6.76-10.993-6.76-10.992H29.498l6.761 10.992-6.761 10.993M69.819 221.559l6.76-10.993-6.76-10.992H56.293l6.76 10.992-6.76 10.993M95.717 221.559l6.761-10.993-6.761-10.992H82.191l6.761 10.992-6.761 10.993M121.649 221.559l6.76-10.993-6.76-10.992h-13.526l6.76 10.992-6.76 10.993M146.025 33.641l6.76 10.993-6.76 10.992h-13.527l6.761-10.992-6.761-10.993M172.819 33.641l6.76 10.993-6.76 10.992h-13.526l6.76-10.992-6.76-10.993M198.717 33.641l6.761 10.993-6.761 10.992h-13.526l6.761-10.992-6.761-10.993M224.649 33.641l6.76 10.993-6.76 10.992h-13.526l6.76-10.992-6.76-10.993M146.025 221.559l6.76-10.993-6.76-10.992h-13.527l6.761 10.992-6.761 10.993M172.819 221.559l6.76-10.993-6.76-10.992h-13.526l6.76 10.992-6.76 10.993M198.717 221.559l6.761-10.993-6.761-10.992h-13.526l6.761 10.992-6.761 10.993M224.649 221.559l6.76-10.993-6.76-10.992h-13.526l6.76 10.992-6.76 10.993"/></g><path fill="#B3B3B3" d="M89.441 77.611c0 54.402 24.733 44.531 53.33 67.566-2.423 3.265-3.863 7.173-3.863 11.57 0 10.948 8.843 19.797 19.775 19.797 10.949 0 19.798-8.843 19.798-19.797.17-7.272-4.7-12.625-9.448-16.709m-10.35 6.826c5.452 0 9.899 4.447 9.899 9.877 0 5.452-4.447 9.899-9.899 9.899-5.43 0-9.877-4.447-9.877-9.899 0-5.43 4.447-9.877 9.877-9.877z"/><path fill="#CDCDCD" d="M168.582 77.611c0 54.402-24.733 44.509-53.33 67.566 2.424 3.287 3.864 7.173 3.864 11.57 0 10.926-8.866 19.797-19.798 19.797-10.927 0-19.776-8.865-19.776-19.797-.088-7.305 4.672-12.62 9.443-16.709m10.327 6.804c-5.43 0-9.898 4.469-9.898 9.899 0 5.43 4.468 9.899 9.898 9.899 5.431 0 9.899-4.469 9.899-9.899 0-5.43-4.468-9.899-9.899-9.899z"/></svg>

<svg xmlns="http://www.w3.org/2000/svg" style="isolation:isolate" width="256" height="256" viewBox="0 0 256 256">
 <defs>
  <filter id="dGbZzy4GSCuU6cpqJz4Y4fUzN2xUnXJA" width="270.648" height="254.338" x="-7.32" y="2.95" filterUnits="userSpaceOnUse">
   <feGaussianBlur xmlns="http://www.w3.org/2000/svg" in="SourceGraphic" stdDeviation="4.294"/>
   <feOffset xmlns="http://www.w3.org/2000/svg" dx="0" dy="4" result="pf_100_offsetBlur"/>
   <feFlood xmlns="http://www.w3.org/2000/svg" flood-opacity=".4"/>
   <feComposite xmlns="http://www.w3.org/2000/svg" in2="pf_100_offsetBlur" operator="in" result="pf_100_dropShadow"/>
   <feBlend xmlns="http://www.w3.org/2000/svg" in="SourceGraphic" in2="pf_100_dropShadow" mode="normal"/>
  </filter>
 </defs>
 <g filter="url(#dGbZzy4GSCuU6cpqJz4Y4fUzN2xUnXJA)">
  <path fill="#666666" d="M 165.685 11.947 C 239.74 11.947 250.324 22.504 250.324 96.491 L 250.324 155.742 C 250.324 229.728 239.74 240.285 165.685 240.285 L 90.315 240.285 C 16.26 240.285 5.676 229.728 5.676 155.742 L 5.676 96.491 C 5.676 22.504 16.26 11.947 90.315 11.947 L 165.685 11.947 Z"/>
 </g>
 <path fill="#333333" d="M 165.685 11.947 C 230.009 11.947 246.447 19.912 249.656 70.49 C 244.122 70.397 -0.134 69.63 6.412 69.46 C 9.78 19.804 26.43 11.947 90.315 11.947 L 165.685 11.947 Z"/>
 <path fill="#333333" d="M 249.54 183.467 C 246.063 232.502 229.271 240.285 165.685 240.285 L 90.315 240.285 C 27.161 240.285 10.167 232.607 6.533 184.46 C 1.218 185.057 245.435 184.311 249.54 183.467 Z"/>
 <g opacity=".4">
  <linearGradient id="_lgradient_265" x1=".517" x2=".517" y1="0" y2="1">
   <stop offset="0%" style="stop-color:rgb(255,255,255)"/>
   <stop offset="12.5%" stop-opacity=".098" style="stop-color:rgb(255,255,255)"/>
   <stop offset="92.5%" stop-opacity=".098" style="stop-color:rgb(0,0,0)"/>
   <stop offset="100%" stop-opacity=".498" style="stop-color:rgb(0,0,0)"/>
  </linearGradient>
  <path fill="none" stroke="url(#_lgradient_265)" stroke-linecap="round" stroke-linejoin="round" stroke-width="4.077" d="M 165.685 11.947 C 239.74 11.947 250.324 22.504 250.324 96.491 L 250.324 155.742 C 250.324 229.728 239.74 240.285 165.685 240.285 L 90.315 240.285 C 16.26 240.285 5.676 229.728 5.676 155.742 L 5.676 96.491 C 5.676 22.504 16.26 11.947 90.315 11.947 L 165.685 11.947 Z" vector-effect="non-scaling-stroke"/>
 </g>
 <g>
  <path fill="#F9F9F9" fill-rule="evenodd" d="M 43.025 33.641 L 49.785 44.634 L 43.025 55.626 L 29.498 55.626 L 36.259 44.634 L 29.498 33.641"/>
  <path fill="#F9F9F9" fill-rule="evenodd" d="M 69.819 33.641 L 76.579 44.634 L 69.819 55.626 L 56.293 55.626 L 63.053 44.634 L 56.293 33.641"/>
  <path fill="#F9F9F9" fill-rule="evenodd" d="M 95.717 33.641 L 102.478 44.634 L 95.717 55.626 L 82.191 55.626 L 88.952 44.634 L 82.191 33.641"/>
  <path fill="#F9F9F9" fill-rule="evenodd" d="M 121.649 33.641 L 128.409 44.634 L 121.649 55.626 L 108.123 55.626 L 114.883 44.634 L 108.123 33.641"/>
  <path fill="#F9F9F9" fill-rule="evenodd" d="M 43.025 221.559 L 49.785 210.566 L 43.025 199.574 L 29.498 199.574 L 36.259 210.566 L 29.498 221.559"/>
  <path fill="#F9F9F9" fill-rule="evenodd" d="M 69.819 221.559 L 76.579 210.566 L 69.819 199.574 L 56.293 199.574 L 63.053 210.566 L 56.293 221.559"/>
  <path fill="#F9F9F9" fill-rule="evenodd" d="M 95.717 221.559 L 102.478 210.566 L 95.717 199.574 L 82.191 199.574 L 88.952 210.566 L 82.191 221.559"/>
  <path fill="#F9F9F9" fill-rule="evenodd" d="M 121.649 221.559 L 128.409 210.566 L 121.649 199.574 L 108.123 199.574 L 114.883 210.566 L 108.123 221.559"/>
  <path fill="#F9F9F9" fill-rule="evenodd" d="M 146.025 33.641 L 152.785 44.634 L 146.025 55.626 L 132.498 55.626 L 139.259 44.634 L 132.498 33.641"/>
  <path fill="#F9F9F9" fill-rule="evenodd" d="M 172.819 33.641 L 179.579 44.634 L 172.819 55.626 L 159.293 55.626 L 166.053 44.634 L 159.293 33.641"/>
  <path fill="#F9F9F9" fill-rule="evenodd" d="M 198.717 33.641 L 205.478 44.634 L 198.717 55.626 L 185.191 55.626 L 191.952 44.634 L 185.191 33.641"/>
  <path fill="#F9F9F9" fill-rule="evenodd" d="M 224.649 33.641 L 231.409 44.634 L 224.649 55.626 L 211.123 55.626 L 217.883 44.634 L 211.123 33.641"/>
  <path fill="#F9F9F9" fill-rule="evenodd" d="M 146.025 221.559 L 152.785 210.566 L 146.025 199.574 L 132.498 199.574 L 139.259 210.566 L 132.498 221.559"/>
  <path fill="#F9F9F9" fill-rule="evenodd" d="M 172.819 221.559 L 179.579 210.566 L 172.819 199.574 L 159.293 199.574 L 166.053 210.566 L 159.293 221.559"/>
  <path fill="#F9F9F9" fill-rule="evenodd" d="M 198.717 221.559 L 205.478 210.566 L 198.717 199.574 L 185.191 199.574 L 191.952 210.566 L 185.191 221.559"/>
  <path fill="#F9F9F9" fill-rule="evenodd" d="M 224.649 221.559 L 231.409 210.566 L 224.649 199.574 L 211.123 199.574 L 217.883 210.566 L 211.123 221.559"/>
 </g>
 <g>
  <path fill="#B3B3B3" d="M 89.441 77.611 C 89.441 132.013 114.174 122.142 142.771 145.177 C 140.348 148.442 138.908 152.35 138.908 156.747 C 138.908 167.695 147.751 176.544 158.683 176.544 C 169.632 176.544 178.481 167.701 178.481 156.747 C 178.651 149.475 173.781 144.122 169.033 140.038 M 158.683 146.864 C 164.135 146.864 168.582 151.311 168.582 156.741 C 168.582 162.193 164.135 166.64 158.683 166.64 C 153.253 166.64 148.806 162.193 148.806 156.741 C 148.806 151.311 153.253 146.864 158.683 146.864 Z"/>
  <path fill="#CDCDCD" d="M 168.582 77.611 C 168.582 132.013 143.849 122.12 115.252 145.177 C 117.676 148.464 119.116 152.35 119.116 156.747 C 119.116 167.673 110.25 176.544 99.318 176.544 C 88.391 176.544 79.542 167.679 79.542 156.747 C 79.454 149.442 84.214 144.127 88.985 140.038 M 99.312 146.842 C 93.882 146.842 89.414 151.311 89.414 156.741 C 89.414 162.171 93.882 166.64 99.312 166.64 C 104.743 166.64 109.211 162.171 109.211 156.741 C 109.211 151.311 104.743 146.842 99.312 146.842 Z"/>
 </g>
</svg>
